findly-builder/apps/searchassist/src/assets/icons/content/fileupload.svg

<svg width="45" height="41" viewBox="0 0 45 41" fill="none" xmlns="http://www.w3.org/2000/svg">
<path opacity="0.5" d="M38.0921 24.3364H6.34863V38.0919C6.34863 39.2611 7.29564 40.2081 8.46486 40.2081H35.9758C37.145 40.2081 38.0921 39.2611 38.0921 38.0919V24.3364Z" fill="#DD3646"/>
<path d="M38.0921 11.6393V24.3366H6.34863V2.11623C6.34863 0.947012 7.29564 0 8.46486 0H26.4528L38.0921 11.6393Z" fill="#93D3A2"/>
<path d="M26.4531 0V9.52303C26.4531 10.6922 27.4001 11.6393 28.5694 11.6393H38.0924L26.4531 0Z" fill="#28A745"/>
<path d="M32.2719 16.9297H12.1677C11.8757 16.9297 11.6387 16.6927 11.6387 16.4006V15.3425C11.6387 15.0505 11.8757 14.8135 12.1677 14.8135H32.2719C32.5639 14.8135 32.801 15.0505 32.801 15.3425V16.4006C32.801 16.6927 32.5639 16.9297 32.2719 16.9297Z" fill="#EAF6EC"/>
<path d="M32.2719 21.1621H12.1677C11.8757 21.1621 11.6387 20.9251 11.6387 20.6331V19.575C11.6387 19.2829 11.8757 19.0459 12.1677 19.0459H32.2719C32.5639 19.0459 32.801 19.2829 32.801 19.575V20.6331C32.801 20.9251 32.5639 21.1621 32.2719 21.1621Z" fill="#EAF6EC"/>
<path d="M43.3827 25.3945H1.05811C0.472977 25.3945 0 24.9216 0 24.3364C0 23.7513 0.472977 23.2783 1.05811 23.2783H43.3827C43.9678 23.2783 44.4408 23.7513 44.4408 24.3364C44.4408 24.9216 43.9678 25.3945 43.3827 25.3945Z" fill="#DD3646"/>
</svg>

<svg width="45" height="41" fill="none" xmlns="http://www.w3.org/2000/svg"><path opacity=".5" d="M38.092 24.336H6.35v13.756c0 1.17.947 2.116 2.116 2.116h27.51c1.17 0 2.117-.947 2.117-2.116V24.336Z" fill="#DD3646"/><path d="M38.092 11.64v12.697H6.35V2.117A2.114 2.114 0 0 1 8.465 0h17.988l11.64 11.64Z" fill="#93D3A2"/><path d="M26.453 0v9.523c0 1.17.947 2.116 2.116 2.116h9.523L26.453 0Z" fill="#28A745"/><path d="M32.272 16.93H12.168a.53.53 0 0 1-.53-.53v-1.057a.53.53 0 0 1 .53-.53h20.104a.53.53 0 0 1 .529.53V16.4a.53.53 0 0 1-.53.529Zm0 4.232H12.168a.53.53 0 0 1-.53-.529v-1.058a.53.53 0 0 1 .53-.53h20.104a.53.53 0 0 1 .529.53v1.058a.53.53 0 0 1-.53.53Z" fill="#EAF6EC"/><path d="M43.383 25.395H1.058a1.057 1.057 0 1 1 0-2.117h42.325a1.057 1.057 0 1 1 0 2.117Z" fill="#DD3646"/></svg>
